src/images/background-5-circles.svg

<svg xmlns="http://www.w3.org/2000/svg" width="1930" height="3809" fill="none" class="sm--full-page__background-circles" viewBox="0 0 1930 3809">
    <circle cx="1353" cy="1175" r="377" fill="url(#paint1_linear)"/>
    <circle cx="360" cy="308" r="138" fill="url(#paint2_linear)"/>
    <circle cx="1625.5" cy="290.5" r="290.5" fill="url(#paint3_linear)"/>
    <circle cx="789" cy="791" r="136" fill="url(#paint4_linear)"/>
    <path fill="url(#paint5_linear)" d="M407.795 2950.94c216.935-20.95 409.781 137.92 430.734 354.86 20.953 216.93-137.922 409.78-354.857 430.73-216.935 20.95-409.78-137.92-430.734-354.86-20.952-216.93 137.922-409.78 354.857-430.73z"/>
    <path fill="url(#paint6_linear)" d="M1608.03 2691.98c148.59-14.35 280.67 94.47 295.02 243.05 14.35 148.59-94.46 280.67-243.05 295.02-148.58 14.35-280.66-94.46-295.02-243.05-14.35-148.58 94.47-280.66 243.05-295.02z"/>
    <circle cx="1578.09" cy="3557.09" r="165.635" fill="url(#paint7_linear)" transform="rotate(-87.36 1578.09 3557.09)"/>
    <circle cx="1210.1" cy="3121.1" r="237.545" fill="url(#paint8_linear)"/>
    <circle cx="490.594" cy="3574.59" r="165.635" fill="url(#paint9_linear)"/>
    <path fill="url(#paint10_linear)" d="M423.795 1573.94c216.935-20.95 409.781 137.92 430.734 354.86 20.953 216.93-137.922 409.78-354.857 430.73-216.935 20.95-409.78-137.92-430.734-354.86-20.952-216.93 137.922-409.78 354.857-430.73z"/>
    <path fill="url(#paint11_linear)" d="M978.918 1899.83c187.732-18.13 354.622 119.36 372.752 307.09 18.13 187.73-119.36 354.62-307.09 372.75-187.731 18.13-354.617-119.36-372.749-307.09-18.132-187.73 119.355-354.62 307.087-372.75z"/>
    <circle cx="372.75" cy="1233.75" r="341.5" fill="url(#paint12_linear)"/>
    <path fill="url(#paint13_linear)" d="M1511.03 1566.98c148.59-14.35 280.67 94.47 295.02 243.05 14.35 148.59-94.46 280.67-243.05 295.02-148.58 14.35-280.66-94.46-295.02-243.05-14.35-148.58 94.47-280.66 243.05-295.02z"/>
    <circle cx="1649.76" cy="1250.76" r="168.941" fill="url(#paint14_linear)"/>
    <circle cx="1224.94" cy="1635.94" r="133.152" fill="url(#paint15_linear)"/>
    <circle cx="552.284" cy="2769.28" r="165.635" fill="url(#paint16_linear)"/>
    <circle cx="451.824" cy="2943.82" r="104.788" fill="url(#paint17_linear)"/>
    <circle cx="1173.11" cy="2614.11" r="225.032" fill="url(#paint18_linear)"/>
    <circle cx="384.425" cy="2247.43" r="178.374" fill="url(#paint19_linear)"/>
    <defs>
        <linearGradient id="paint1_linear" x1="1353" x2="1353" y1="798" y2="1552" gradientUnits="userSpaceOnUse">
            <stop stop-color="#fff" stop-opacity=".1"/>
            <stop offset="1" stop-color="#C4C4C4" stop-opacity="0"/>
            <stop offset="1" stop-color="#fff" stop-opacity="0"/>
        </linearGradient>
        <linearGradient id="paint2_linear" x1="548.048" x2="360" y1="170" y2="446" gradientUnits="userSpaceOnUse">
            <stop stop-color="#fff" stop-opacity=".1"/>
            <stop offset="1" stop-color="#C4C4C4" stop-opacity="0"/>
            <stop offset="1" stop-color="#fff" stop-opacity="0"/>
        </linearGradient>
        <linearGradient id="paint3_linear" x1="1088.71" x2="1952.84" y1="1007.28" y2="-383.123" gradientUnits="userSpaceOnUse">
            <stop stop-color="#fff" stop-opacity=".1"/>
            <stop offset="1" stop-color="#C4C4C4" stop-opacity="0"/>
            <stop offset="1" stop-color="#fff" stop-opacity="0"/>
        </linearGradient>
        <linearGradient id="paint4_linear" x1="925" x2="819.458" y1="655" y2="840.583" gradientUnits="userSpaceOnUse">
            <stop stop-color="#fff" stop-opacity=".1"/>
            <stop offset="1" stop-color="#C4C4C4" stop-opacity="0"/>
            <stop offset="1" stop-color="#fff" stop-opacity="0"/>
        </linearGradient>
        <linearGradient id="paint5_linear" x1="-65.326" x2="-225.133" y1="1830.71" y2="3960.62" gradientUnits="userSpaceOnUse">
            <stop stop-color="#C4C4C4" stop-opacity=".18"/>
            <stop offset="1" stop-color="#C4C4C4" stop-opacity="0"/>
        </linearGradient>
        <linearGradient id="paint6_linear" x1="1077.03" x2="1584.75" y1="2794.22" y2="3081.91" gradientUnits="userSpaceOnUse">
            <stop stop-color="#C4C4C4" stop-opacity=".18"/>
            <stop offset="1" stop-color="#C4C4C4" stop-opacity="0"/>
        </linearGradient>
        <linearGradient id="paint7_linear" x1="1743.73" x2="1615.19" y1="3391.45" y2="3617.48" gradientUnits="userSpaceOnUse">
            <stop stop-color="#fff" stop-opacity=".1"/>
            <stop offset="1" stop-color="#C4C4C4" stop-opacity="0"/>
            <stop offset="1" stop-color="#fff" stop-opacity="0"/>
        </linearGradient>
        <linearGradient id="paint8_linear" x1="1447.64" x2="1263.3" y1="2883.56" y2="3207.71" gradientUnits="userSpaceOnUse">
            <stop stop-color="#fff" stop-opacity=".1"/>
            <stop offset="1" stop-color="#C4C4C4" stop-opacity="0"/>
            <stop offset="1" stop-color="#fff" stop-opacity="0"/>
        </linearGradient>
        <linearGradient id="paint9_linear" x1="656.229" x2="527.689" y1="3408.96" y2="3634.98" gradientUnits="userSpaceOnUse">
            <stop stop-color="#fff" stop-opacity=".1"/>
            <stop offset="1" stop-color="#C4C4C4" stop-opacity="0"/>
            <stop offset="1" stop-color="#fff" stop-opacity="0"/>
        </linearGradient>
        <linearGradient id="paint10_linear" x1="-49.326" x2="-209.133" y1="453.71" y2="2583.62" gradientUnits="userSpaceOnUse">
            <stop stop-color="#C4C4C4" stop-opacity=".18"/>
            <stop offset="1" stop-color="#C4C4C4" stop-opacity="0"/>
        </linearGradient>
        <linearGradient id="paint11_linear" x1="1107.5" x2="619.5" y1="1840.5" y2="2804" gradientUnits="userSpaceOnUse">
            <stop stop-color="#fff"/>
            <stop offset="1" stop-color="#E9E9E9" stop-opacity="0"/>
        </linearGradient>
        <linearGradient id="paint12_linear" x1="1098.58" x2="192.071" y1="1709.99" y2="1203.49" gradientUnits="userSpaceOnUse">
            <stop stop-color="#C4C4C4" stop-opacity=".18"/>
            <stop offset="1" stop-color="#C4C4C4" stop-opacity="0"/>
        </linearGradient>
        <linearGradient id="paint13_linear" x1="980.026" x2="1487.75" y1="1669.22" y2="1956.91" gradientUnits="userSpaceOnUse">
            <stop stop-color="#C4C4C4" stop-opacity=".18"/>
            <stop offset="1" stop-color="#C4C4C4" stop-opacity="0"/>
        </linearGradient>
        <linearGradient id="paint14_linear" x1="1818.7" x2="1687.6" y1="1081.82" y2="1312.36" gradientUnits="userSpaceOnUse">
            <stop stop-color="#fff" stop-opacity=".1"/>
            <stop offset="1" stop-color="#C4C4C4" stop-opacity="0"/>
            <stop offset="1" stop-color="#fff" stop-opacity="0"/>
        </linearGradient>
        <linearGradient id="paint15_linear" x1="1358.09" x2="1254.76" y1="1502.78" y2="1684.48" gradientUnits="userSpaceOnUse">
            <stop stop-color="#fff" stop-opacity=".1"/>
            <stop offset="1" stop-color="#C4C4C4" stop-opacity="0"/>
            <stop offset="1" stop-color="#fff" stop-opacity="0"/>
        </linearGradient>
        <linearGradient id="paint16_linear" x1="717.919" x2="589.379" y1="2603.65" y2="2829.67" gradientUnits="userSpaceOnUse">
            <stop stop-color="#fff" stop-opacity=".1"/>
            <stop offset="1" stop-color="#C4C4C4" stop-opacity="0"/>
            <stop offset="1" stop-color="#fff" stop-opacity="0"/>
        </linearGradient>
        <linearGradient id="paint17_linear" x1="556.611" x2="475.292" y1="2839.04" y2="2982.03" gradientUnits="userSpaceOnUse">
            <stop stop-color="#fff" stop-opacity=".1"/>
            <stop offset="1" stop-color="#C4C4C4" stop-opacity="0"/>
            <stop offset="1" stop-color="#fff" stop-opacity="0"/>
        </linearGradient>
        <linearGradient id="paint18_linear" x1="1398.15" x2="1223.51" y1="2389.08" y2="2696.16" gradientUnits="userSpaceOnUse">
            <stop stop-color="#fff" stop-opacity=".1"/>
            <stop offset="1" stop-color="#C4C4C4" stop-opacity="0"/>
            <stop offset="1" stop-color="#fff" stop-opacity="0"/>
        </linearGradient>
        <linearGradient id="paint19_linear" x1="562.799" x2="424.373" y1="2069.05" y2="2312.46" gradientUnits="userSpaceOnUse">
            <stop stop-color="#fff" stop-opacity=".1"/>
            <stop offset="1" stop-color="#C4C4C4" stop-opacity="0"/>
            <stop offset="1" stop-color="#fff" stop-opacity="0"/>
        </linearGradient>
    </defs>
</svg>

<svg width="1930" height="3809" viewBox="0 0 1930 3809" fill="none"
    xmlns="http://www.w3.org/2000/svg">
    <circle cx="1353" cy="1175" r="377" fill="url(#paint1_linear)"/>
    <circle cx="1353" cy="1175" r="377" fill="url(#paint1_linear)"/>
    <circle cx="360" cy="308" r="138" fill="url(#paint2_linear)"/>
    <circle cx="1625.5" cy="290.5" r="290.5" fill="url(#paint3_linear)"/>
    <circle cx="789" cy="791" r="136" fill="url(#paint4_linear)"/>
    <path d="M407.795 2950.94C624.73 2929.99 817.576 3088.86 838.529 3305.8C859.482 3522.73 700.607 3715.58 483.672 3736.53C266.737 3757.48 73.8914 3598.61 52.9385 3381.67C31.9857 3164.74 190.86 2971.89 407.795 2950.94Z" fill="url(#paint5_linear)"/>
    <path d="M1608.03 2691.98C1756.62 2677.63 1888.7 2786.45 1903.05 2935.03C1917.4 3083.62 1808.59 3215.7 1660 3230.05C1511.42 3244.4 1379.34 3135.59 1364.98 2987C1350.63 2838.42 1459.45 2706.34 1608.03 2691.98Z" fill="url(#paint6_linear)"/>
    <circle cx="1578.09" cy="3557.09" r="165.635" transform="rotate(-87.3598 1578.09 3557.09)" fill="url(#paint7_linear)"/>
    <circle cx="1210.1" cy="3121.1" r="237.545" transform="rotate(-169.124 1210.1 3121.1)" fill="url(#paint8_linear)"/>
    <circle cx="490.594" cy="3574.59" r="165.635" transform="rotate(-49.2693 490.594 3574.59)" fill="url(#paint9_linear)"/>
    <path d="M423.795 1573.94C640.73 1552.99 833.576 1711.86 854.529 1928.8C875.482 2145.73 716.607 2338.58 499.672 2359.53C282.737 2380.48 89.8914 2221.61 68.9385 2004.67C47.9857 1787.74 206.86 1594.89 423.795 1573.94Z" fill="url(#paint10_linear)"/>
    <path d="M978.918 1899.83C1166.65 1881.7 1333.54 2019.19 1351.67 2206.92C1369.8 2394.65 1232.31 2561.54 1044.58 2579.67C856.849 2597.8 689.963 2460.31 671.831 2272.58C653.699 2084.85 791.186 1917.96 978.918 1899.83Z" fill="url(#paint11_linear)"/>
    <circle cx="372.75" cy="1233.75" r="341.5" transform="rotate(-95.5169 372.75 1233.75)" fill="url(#paint12_linear)"/>
    <path d="M1511.03 1566.98C1659.62 1552.63 1791.7 1661.45 1806.05 1810.03C1820.4 1958.62 1711.59 2090.7 1563 2105.05C1414.42 2119.4 1282.34 2010.59 1267.98 1862C1253.63 1713.42 1362.45 1581.34 1511.03 1566.98Z" fill="url(#paint13_linear)"/>
    <circle cx="1649.76" cy="1250.76" r="168.941" transform="rotate(-132.923 1649.76 1250.76)" fill="url(#paint14_linear)"/>
    <circle cx="1224.94" cy="1635.94" r="133.152" transform="rotate(-31.3178 1224.94 1635.94)" fill="url(#paint15_linear)"/>
    <circle cx="552.284" cy="2769.28" r="165.635" transform="rotate(-9.74582 552.284 2769.28)" fill="url(#paint16_linear)"/>
    <circle cx="451.824" cy="2943.82" r="104.788" transform="rotate(40.9582 451.824 2943.82)" fill="url(#paint17_linear)"/>
    <circle cx="1173.11" cy="2614.11" r="225.032" transform="rotate(-117.263 1173.11 2614.11)" fill="url(#paint18_linear)"/>
    <circle cx="384.425" cy="2247.43" r="178.374" transform="rotate(103.648 384.425 2247.43)" fill="url(#paint19_linear)"/>
    <defs>
        <linearGradient id="paint1_linear" x1="1353" y1="798" x2="1353" y2="1552" gradientUnits="userSpaceOnUse">
            <stop stop-color="white" stop-opacity="0.1"/>
            <stop offset="1" stop-color="#C4C4C4" stop-opacity="0"/>
            <stop offset="1" stop-color="white" stop-opacity="0"/>
        </linearGradient>
        <linearGradient id="paint2_linear" x1="548.048" y1="170" x2="360" y2="446" gradientUnits="userSpaceOnUse">
            <stop stop-color="white" stop-opacity="0.1"/>
            <stop offset="1" stop-color="#C4C4C4" stop-opacity="0"/>
            <stop offset="1" stop-color="white" stop-opacity="0"/>
        </linearGradient>
        <linearGradient id="paint3_linear" x1="1088.71" y1="1007.28" x2="1952.84" y2="-383.123" gradientUnits="userSpaceOnUse">
            <stop stop-color="white" stop-opacity="0.1"/>
            <stop offset="1" stop-color="#C4C4C4" stop-opacity="0"/>
            <stop offset="1" stop-color="white" stop-opacity="0"/>
        </linearGradient>
        <linearGradient id="paint4_linear" x1="925" y1="655" x2="819.458" y2="840.583" gradientUnits="userSpaceOnUse">
            <stop stop-color="white" stop-opacity="0.1"/>
            <stop offset="1" stop-color="#C4C4C4" stop-opacity="0"/>
            <stop offset="1" stop-color="white" stop-opacity="0"/>
        </linearGradient>
        <linearGradient id="paint5_linear" x1="-65.3264" y1="1830.71" x2="-225.133" y2="3960.62" gradientUnits="userSpaceOnUse">
            <stop stop-color="#C4C4C4" stop-opacity="0.18"/>
            <stop offset="1" stop-color="#C4C4C4" stop-opacity="0"/>
        </linearGradient>
        <linearGradient id="paint6_linear" x1="1077.03" y1="2794.22" x2="1584.75" y2="3081.91" gradientUnits="userSpaceOnUse">
            <stop stop-color="#C4C4C4" stop-opacity="0.18"/>
            <stop offset="1" stop-color="#C4C4C4" stop-opacity="0"/>
        </linearGradient>
        <linearGradient id="paint7_linear" x1="1743.73" y1="3391.45" x2="1615.19" y2="3617.48" gradientUnits="userSpaceOnUse">
            <stop stop-color="white" stop-opacity="0.1"/>
            <stop offset="1" stop-color="#C4C4C4" stop-opacity="0"/>
            <stop offset="1" stop-color="white" stop-opacity="0"/>
        </linearGradient>
        <linearGradient id="paint8_linear" x1="1447.64" y1="2883.56" x2="1263.3" y2="3207.71" gradientUnits="userSpaceOnUse">
            <stop stop-color="white" stop-opacity="0.1"/>
            <stop offset="1" stop-color="#C4C4C4" stop-opacity="0"/>
            <stop offset="1" stop-color="white" stop-opacity="0"/>
        </linearGradient>
        <linearGradient id="paint9_linear" x1="656.229" y1="3408.96" x2="527.689" y2="3634.98" gradientUnits="userSpaceOnUse">
            <stop stop-color="white" stop-opacity="0.1"/>
            <stop offset="1" stop-color="#C4C4C4" stop-opacity="0"/>
            <stop offset="1" stop-color="white" stop-opacity="0"/>
        </linearGradient>
        <linearGradient id="paint10_linear" x1="-49.3264" y1="453.71" x2="-209.133" y2="2583.62" gradientUnits="userSpaceOnUse">
            <stop stop-color="#C4C4C4" stop-opacity="0.18"/>
            <stop offset="1" stop-color="#C4C4C4" stop-opacity="0"/>
        </linearGradient>
        <linearGradient id="paint11_linear" x1="1107.5" y1="1840.5" x2="619.5" y2="2804" gradientUnits="userSpaceOnUse">
            <stop stop-color="white"/>
            <stop offset="1" stop-color="#E9E9E9" stop-opacity="0"/>
        </linearGradient>
        <linearGradient id="paint12_linear" x1="1098.58" y1="1709.99" x2="192.071" y2="1203.49" gradientUnits="userSpaceOnUse">
            <stop stop-color="#C4C4C4" stop-opacity="0.18"/>
            <stop offset="1" stop-color="#C4C4C4" stop-opacity="0"/>
        </linearGradient>
        <linearGradient id="paint13_linear" x1="980.026" y1="1669.22" x2="1487.75" y2="1956.91" gradientUnits="userSpaceOnUse">
            <stop stop-color="#C4C4C4" stop-opacity="0.18"/>
            <stop offset="1" stop-color="#C4C4C4" stop-opacity="0"/>
        </linearGradient>
        <linearGradient id="paint14_linear" x1="1818.7" y1="1081.82" x2="1687.6" y2="1312.36" gradientUnits="userSpaceOnUse">
            <stop stop-color="white" stop-opacity="0.1"/>
            <stop offset="1" stop-color="#C4C4C4" stop-opacity="0"/>
            <stop offset="1" stop-color="white" stop-opacity="0"/>
        </linearGradient>
        <linearGradient id="paint15_linear" x1="1358.09" y1="1502.78" x2="1254.76" y2="1684.48" gradientUnits="userSpaceOnUse">
            <stop stop-color="white" stop-opacity="0.1"/>
            <stop offset="1" stop-color="#C4C4C4" stop-opacity="0"/>
            <stop offset="1" stop-color="white" stop-opacity="0"/>
        </linearGradient>
        <linearGradient id="paint16_linear" x1="717.919" y1="2603.65" x2="589.379" y2="2829.67" gradientUnits="userSpaceOnUse">
            <stop stop-color="white" stop-opacity="0.1"/>
            <stop offset="1" stop-color="#C4C4C4" stop-opacity="0"/>
            <stop offset="1" stop-color="white" stop-opacity="0"/>
        </linearGradient>
        <linearGradient id="paint17_linear" x1="556.611" y1="2839.04" x2="475.292" y2="2982.03" gradientUnits="userSpaceOnUse">
            <stop stop-color="white" stop-opacity="0.1"/>
            <stop offset="1" stop-color="#C4C4C4" stop-opacity="0"/>
            <stop offset="1" stop-color="white" stop-opacity="0"/>
        </linearGradient>
        <linearGradient id="paint18_linear" x1="1398.15" y1="2389.08" x2="1223.51" y2="2696.16" gradientUnits="userSpaceOnUse">
            <stop stop-color="white" stop-opacity="0.1"/>
            <stop offset="1" stop-color="#C4C4C4" stop-opacity="0"/>
            <stop offset="1" stop-color="white" stop-opacity="0"/>
        </linearGradient>
        <linearGradient id="paint19_linear" x1="562.799" y1="2069.05" x2="424.373" y2="2312.46" gradientUnits="userSpaceOnUse">
            <stop stop-color="white" stop-opacity="0.1"/>
            <stop offset="1" stop-color="#C4C4C4" stop-opacity="0"/>
            <stop offset="1" stop-color="white" stop-opacity="0"/>
        </linearGradient>
    </defs>
</svg>
